icons/minimize-24.svg

<svg width="24" height="24" viewBox="0 0 24 24" fill="none" xmlns="http://www.w3.org/2000/svg">
<path d="M10.0001 13.2501C10.0447 13.2501 10.0884 13.2543 10.1309 13.2618C10.1368 13.2628 10.1427 13.2635 10.1485 13.2647C10.1619 13.2674 10.1745 13.273 10.1876 13.2764C10.2208 13.285 10.2542 13.2935 10.2862 13.3067C10.3365 13.3275 10.3837 13.3541 10.4278 13.3848C10.4637 13.4098 10.4983 13.4378 10.5303 13.4698C10.5787 13.5182 10.6161 13.5733 10.6485 13.6299C10.664 13.6571 10.6804 13.6838 10.6924 13.7129C10.7132 13.7629 10.7279 13.8147 10.7374 13.8672C10.7451 13.9104 10.7501 13.9547 10.7501 14.0001V20.0001C10.75 20.4142 10.4142 20.75 10.0001 20.7501C9.58587 20.7501 9.2501 20.4142 9.25006 20.0001V15.8106L3.53034 21.5303C3.23746 21.8232 2.76269 21.8232 2.46979 21.5303C2.1769 21.2374 2.1769 20.7627 2.46979 20.4698L8.18952 14.7501H4.00006C3.58587 14.7501 3.2501 14.4142 3.25006 14.0001C3.25006 13.5858 3.58585 13.2501 4.00006 13.2501H10.0001Z" fill="black"/>
<path d="M20.4698 2.46978C20.7627 2.17689 21.2374 2.17689 21.5303 2.46978C21.8232 2.76268 21.8232 3.23746 21.5303 3.53033L15.8106 9.25006H20.0001C20.4143 9.25009 20.7501 9.58586 20.7501 10.0001C20.75 10.4142 20.4142 10.75 20.0001 10.7501H14.0001C13.9547 10.7501 13.9104 10.7451 13.8673 10.7374C13.8617 10.7364 13.8562 10.7355 13.8506 10.7344C13.8373 10.7317 13.8247 10.7261 13.8116 10.7227C13.7783 10.7141 13.745 10.7057 13.713 10.6924C13.6838 10.6803 13.6571 10.664 13.6299 10.6485C13.5733 10.6161 13.5182 10.5787 13.4698 10.5303C13.4378 10.4983 13.4098 10.4637 13.3848 10.4278C13.3541 10.3837 13.3275 10.3365 13.3067 10.2862C13.286 10.2359 13.2711 10.1838 13.2618 10.1309C13.2543 10.0884 13.2501 10.0447 13.2501 10.0001V4.00006C13.2501 3.58584 13.5859 3.25006 14.0001 3.25006C14.4143 3.25009 14.7501 3.58586 14.7501 4.00006V8.18951L20.4698 2.46978Z" fill="black"/>
</svg>

<svg xmlns="http://www.w3.org/2000/svg" width="24" height="24" viewBox="0 0 24 24"><path d="M10 13.25a.71.71 0 0 1 .149.015c.013.002.026.008.039.011.033.009.066.017.098.031a.753.753 0 0 1 .363.323c.015.027.031.054.043.083a.731.731 0 0 1 .058.287v6a.75.75 0 0 1-1.5 0v-4.189L3.53 21.53a.749.749 0 1 1-1.06-1.06l5.72-5.72H4a.75.75 0 0 1 0-1.5h6ZM20.47 2.47a.749.749 0 1 1 1.06 1.06l-5.719 5.72H20a.75.75 0 0 1 0 1.5h-6a.731.731 0 0 1-.133-.013c-.005-.001-.011-.001-.016-.003-.014-.002-.026-.008-.039-.011-.034-.009-.067-.017-.099-.031-.029-.012-.056-.028-.083-.043a.731.731 0 0 1-.38-.649V4a.75.75 0 0 1 1.5 0v4.19l5.72-5.72Z"/></svg>
